X: 610
T: Dügâh Seyir
C: Şefik Gürmeriç
O: Turkey
F: http://compmusic.upf.edu/node/140
N: dugah--seyir--sofyan--1--sefik_gurmeric
N: makam= dugah
N: form= seyir
N: usul= sofyan = 4/4
M: 4/4
L: 1/16
K: C _1/4B _7/8d  
Q: 1/4=60
%%MIDI tuningsystem comma53
A4 ^G4 A4 ^c2_7/8B2  | _7/8B2A2 ^G2A2 G2A2 F4  | \
w:   |   | 
z2^c2 _7/8B2A2 ^G2A2 B2BA  | 
w:   | 
A4 B4 c8  | z2c4_3/4d2 e2f2 g2e2  | f4 _7/8a4 g2f2 f2e2  | \
w:   |   |   | 
e2_3/4d2 d2c2 B2c2 d2dc  | 
w:   | 
c12 z4  | _3/4d3c _2/4B4 c3B A4  | z2_7/8B4A2 B3A ^G2A2  | \
w:   |   |   | 
^G4 z4 A2_7/8B2 ^c2=d2  | 
w:   | 
e2=d2 d2^c2 c2_7/8B2 B2A2  | ^G2A2 _7/8B2BA A8  | \
w:   |   | 
^G4 {^c}_7/8B2A2 A8  | |


